svg/fluentui-system-icons/ic_fluent_textbox_align_top_24_regular.svg

<svg width="24" height="24" viewBox="0 0 24 24" fill="none" xmlns="http://www.w3.org/2000/svg">
<path d="M21 5.75C21 4.23122 19.7688 3 18.25 3H5.75C4.23122 3 3 4.23122 3 5.75V18.25C3 19.7688 4.23122 21 5.75 21H18.25C19.7688 21 21 19.7688 21 18.25V5.75ZM5.75 4.5H18.25C18.9404 4.5 19.5 5.05964 19.5 5.75V18.25C19.5 18.9404 18.9404 19.5 18.25 19.5H5.75C5.05964 19.5 4.5 18.9404 4.5 18.25V5.75C4.5 5.05964 5.05964 4.5 5.75 4.5ZM6.75 7.5H17.25C17.6642 7.5 18 7.83579 18 8.25C18 8.6297 17.7178 8.94349 17.3518 8.99315L17.25 9H6.75C6.33579 9 6 8.66421 6 8.25C6 7.8703 6.28215 7.55651 6.64823 7.50685L6.75 7.5ZM17.25 10.5H6.75L6.64823 10.5068C6.28215 10.5565 6 10.8703 6 11.25C6 11.6642 6.33579 12 6.75 12H17.25L17.3518 11.9932C17.7178 11.9435 18 11.6297 18 11.25C18 10.8358 17.6642 10.5 17.25 10.5Z" fill="#212121"/>
</svg>

<svg xmlns="http://www.w3.org/2000/svg" width="24" height="24"><path d="M21 5.75A2.75 2.75 0 0 0 18.25 3H5.75A2.75 2.75 0 0 0 3 5.75v12.5A2.75 2.75 0 0 0 5.75 21h12.5A2.75 2.75 0 0 0 21 18.25V5.75ZM5.75 4.5h12.5c.69 0 1.25.56 1.25 1.25v12.5c0 .69-.56 1.25-1.25 1.25H5.75c-.69 0-1.25-.56-1.25-1.25V5.75c0-.69.56-1.25 1.25-1.25Zm1 3h10.5a.75.75 0 0 1 .102 1.493L17.25 9H6.75a.75.75 0 0 1-.102-1.493L6.75 7.5Zm10.5 3H6.75l-.102.007A.75.75 0 0 0 6.75 12h10.5l.102-.007a.75.75 0 0 0-.102-1.493Z"/></svg>
